icons/round/editor/ic_border_bottom_24px.svg

<svg xmlns="http://www.w3.org/2000/svg" height="24" viewBox="0 0 24 24" width="24"><path d="M0 0h24v24H0V0z" fill="none"/><path d="M9 11H7v2h2v-2zm4 4h-2v2h2v-2zM9 3H7v2h2V3zm4 8h-2v2h2v-2zM5 3H3v2h2V3zm8 4h-2v2h2V7zm4 4h-2v2h2v-2zm-4-8h-2v2h2V3zm4 0h-2v2h2V3zm2 10h2v-2h-2v2zm0 4h2v-2h-2v2zM5 7H3v2h2V7zm14-4v2h2V3h-2zm0 6h2V7h-2v2zM5 11H3v2h2v-2zM4 21h16c.55 0 1-.45 1-1s-.45-1-1-1H4c-.55 0-1 .45-1 1s.45 1 1 1zm1-6H3v2h2v-2z"/></svg>

<svg xmlns="http://www.w3.org/2000/svg" enable-background="new 0 0 24 24" height="24" viewBox="0 0 24 24" width="24"><g><rect fill="none" height="24" width="24"/></g><g><g><g><path d="M9,11H7v2h2V11z M13,15h-2v2h2V15z M9,3H7v2h2V3z M13,11h-2v2h2V11z M5,3H3v2h2V3z M13,7h-2v2h2V7z M17,11h-2v2h2V11z M13,3h-2v2h2V3z M17,3h-2v2h2V3z M19,13h2v-2h-2V13z M19,17h2v-2h-2V17z M5,7H3v2h2V7z M19,3v2h2V3H19z M19,9h2V7h-2V9z M5,11H3 v2h2V11z M4,21h16c0.55,0,1-0.45,1-1l0,0c0-0.55-0.45-1-1-1H4c-0.55,0-1,0.45-1,1l0,0C3,20.55,3.45,21,4,21z M5,15H3v2h2V15z"/></g></g></g></svg>
